src/assets/icons/weeks,fancy,53.svg

<svg width="48" height="48" viewBox="0 0 48 48" fill="none" xmlns="http://www.w3.org/2000/svg">
<rect opacity="0.2" x="4" y="6" width="40" height="40" rx="4" fill="black"/>
<path d="M14.8361 41.2784C19.3702 41.2784 22.4526 38.3253 22.4426 34.2088C22.4526 30.3111 19.7282 27.5071 16.0591 27.5071C14.2694 27.5071 12.7282 28.2528 12.0123 29.2571H11.8929L12.4199 24.1562H21.3191V20.6364H8.87021L7.90572 31.375L11.7338 32.0611C12.3603 31.2159 13.5733 30.6889 14.7765 30.6889C16.8248 30.6989 18.2963 32.1804 18.2963 34.3182C18.2963 36.4361 16.8546 37.8977 14.8361 37.8977C13.1259 37.8977 11.7438 36.8239 11.6444 35.2429H7.46822C7.54776 38.7628 10.6202 41.2784 14.8361 41.2784ZM32.9725 41.2784C37.5463 41.2784 40.8176 38.7628 40.8077 35.2827C40.8176 32.7472 39.2069 30.9375 36.214 30.5597V30.4006C38.4909 29.9929 40.062 28.3821 40.052 26.0952C40.062 22.8835 37.248 20.358 33.0321 20.358C28.856 20.358 25.714 22.804 25.6543 26.3239H29.7807C29.8304 24.7727 31.2523 23.7685 33.0123 23.7685C34.7523 23.7685 35.9157 24.8224 35.9057 26.3537C35.9157 27.9545 34.5534 29.0384 32.5946 29.0384H30.6955V32.2003H32.5946C34.9015 32.2003 36.3432 33.3537 36.3333 34.9943C36.3432 36.6151 34.9512 37.7287 32.9824 37.7287C31.0833 37.7287 29.6614 36.7344 29.5819 35.2429H25.2466C25.3162 38.8026 28.498 41.2784 32.9725 41.2784Z" fill="black"/>
<g opacity="0.4">
<path d="M10 4C10 2.89543 10.8954 2 12 2C13.1046 2 14 2.89543 14 4V8C14 9.10457 13.1046 10 12 10C10.8954 10 10 9.10457 10 8V4Z" fill="black"/>
<path d="M34 4C34 2.89543 34.8954 2 36 2C37.1046 2 38 2.89543 38 4V8C38 9.10457 37.1046 10 36 10C34.8954 10 34 9.10457 34 8V4Z" fill="black"/>
</g>
<path fill-rule="evenodd" clip-rule="evenodd" d="M10 6.00869C7.52043 6.04456 6.11466 6.22849 5.17157 7.17157C4 8.34315 4 10.2288 4 14V16H44V14C44 10.2288 44 8.34315 42.8284 7.17157C41.8853 6.22849 40.4796 6.04456 38 6.00869V8C38 9.10457 37.1046 10 36 10C34.8954 10 34 9.10457 34 8V6H14V8C14 9.10457 13.1046 10 12 10C10.8954 10 10 9.10457 10 8V6.00869Z" fill="black"/>
</svg>

<svg xmlns="http://www.w3.org/2000/svg" width="48" height="48" fill="none" viewBox="0 0 48 48">
  <rect width="40" height="40" x="4" y="6" fill="#000" opacity=".2" rx="4"/>
  <path fill="#000" d="M14.836 41.278c4.534 0 7.617-2.953 7.607-7.07.01-3.897-2.715-6.7-6.384-6.7-1.79 0-3.33.745-4.047 1.75h-.12l.528-5.102h8.9v-3.52H8.87l-.964 10.739 3.828.686c.626-.845 1.84-1.372 3.043-1.372 2.048.01 3.52 1.491 3.52 3.63 0 2.117-1.442 3.579-3.46 3.579-1.711 0-3.093-1.074-3.193-2.655H7.468c.08 3.52 3.152 6.035 7.368 6.035zm18.136 0c4.574 0 7.846-2.515 7.836-5.995.01-2.536-1.601-4.346-4.594-4.723v-.16c2.277-.407 3.848-2.018 3.838-4.305.01-3.211-2.804-5.737-7.02-5.737-4.176 0-7.318 2.446-7.378 5.966h4.127c.05-1.551 1.471-2.556 3.231-2.556 1.74 0 2.904 1.054 2.894 2.586.01 1.6-1.353 2.684-3.311 2.684h-1.9V32.2h1.9c2.306 0 3.748 1.154 3.738 2.794.01 1.621-1.382 2.735-3.35 2.735-1.9 0-3.322-.995-3.401-2.486h-4.335c.07 3.56 3.251 6.035 7.725 6.035z"/>
  <g opacity=".4">
    <path fill="#000" d="M10 4a2 2 0 114 0v4a2 2 0 11-4 0V4zM34 4a2 2 0 114 0v4a2 2 0 11-4 0V4z"/>
  </g>
  <path fill="#000" fill-rule="evenodd" d="M10 6.009c-2.48.036-3.885.22-4.828 1.163C4 8.343 4 10.229 4 14v2h40v-2c0-3.771 0-5.657-1.172-6.828-.943-.944-2.348-1.127-4.828-1.163V8a2 2 0 11-4 0V6H14v2a2 2 0 11-4 0V6.009z" clip-rule="evenodd"/>
</svg>
